packages/core/src/svgs/metis.svg

<svg width="24" height="24" viewBox="0 0 24 24" fill="none" xmlns="http://www.w3.org/2000/svg">
<g clip-path="url(#clip0_31_13806)">
<path d="M0 0H24V24H0V0Z" fill="#00D8C1"/>
<path d="M11.85 12.6601C12 12.3859 12.2571 12.0901 12.4886 11.7944C13.1143 11.803 13.5386 11.8287 14.1429 11.5073C14.3571 11.3959 14.4129 11.4044 14.4771 11.1559C13.7314 11.1559 13.5686 11.2416 12.96 11.3873C13.3586 10.813 14.9057 10.4444 15 9.71585C14.4643 9.83585 14.2714 9.92585 13.9029 10.2044L13.0243 10.9159C13.0629 10.6759 13.23 10.4187 13.3243 10.2044C13.4614 9.883 13.4229 9.763 13.5129 9.42871C13.2514 9.45443 13.1186 9.74157 12.9557 9.973C12.24 11.0444 12.51 11.9144 11.7171 12.3816C11.7686 11.8501 11.9786 11.2501 11.82 10.6544C11.37 10.6116 11.3186 11.6273 11.3186 12.2059C11.3186 13.5387 11.34 12.8916 10.8814 13.843C10.8471 13.4744 10.8771 12.6216 10.7743 12.3644C10.65 12.043 10.7443 12.1544 10.4829 12.1501C10.2943 12.5016 10.4186 13.483 10.5 13.8773C10.5643 14.2116 10.65 14.3401 10.5643 14.6187C10.5257 14.7387 10.3586 15.1716 10.2943 15.3001C10.1786 14.7644 9.88286 13.813 9.44572 13.8687C9.32143 14.383 9.90429 15.3087 10.2 15.5401C10.1914 16.0116 10.0629 16.1487 10.05 16.7144C10.1271 16.5773 10.1486 16.5044 10.1871 16.3544C10.2214 16.2087 10.2514 16.033 10.2643 15.883C10.8343 15.8659 11.9357 15.7459 12.0386 14.983C11.5671 14.8287 10.7743 15.3687 10.41 15.5701C10.4614 15.283 10.6929 14.6701 10.8471 14.4816C11.2886 14.593 12.4457 14.5159 12.5957 13.8901L10.92 14.2116L11.4857 13.1701C12.1029 13.1701 13.3714 12.9816 13.5171 12.3859C12.7929 12.3001 12.4243 12.5487 11.8457 12.6601H11.85Z" fill="#F0F3FA"/>
<path d="M12.0171 4.71436C16.0286 4.71436 19.2857 8.0315 19.2857 12.1201C19.2857 16.2429 16.0971 18.3772 13.8643 19.2858H13.8514C13.3114 18.6001 13.5086 18.7286 14.0743 17.3444C14.4857 16.3372 14.4171 16.1958 14.5714 15.7415C14.6314 15.5701 14.7471 15.4415 14.8157 15.3129C16.7743 15.2872 16.9286 15.2658 16.9157 14.4558C16.9157 13.9029 16.8814 14.1001 17.1129 13.7486C16.95 13.4915 16.9929 13.3929 17.0486 13.2086C17.1471 12.8872 17.0357 12.9258 16.9629 12.6472C17.2029 12.4329 17.4257 12.4244 17.5714 12.0986C17.4086 11.8329 17.1643 11.7086 16.92 11.5115C16.4914 11.1601 16.2943 10.8858 16.2857 10.6629C16.2729 10.3629 16.5471 10.1529 16.5514 9.97721C16.56 9.77578 16.2986 9.46293 16.1743 9.23578L15.7886 8.37864C15.3686 7.3415 14.7943 7.23864 13.59 7.1015C12.6129 6.98578 12.0129 6.85293 11.5029 6.85721C10.86 6.8615 10.3543 7.2215 9.40286 7.9715C8.98316 8.29702 8.52553 8.57044 8.04 8.78578C7.38 9.2915 6.45428 10.0715 6.44571 10.9158C6.43286 11.2801 6.43714 11.6401 6.42857 12.0001C6.40714 12.9772 7.13143 13.1529 7.24286 13.3972C7.32857 13.5772 7.27714 13.7658 7.39286 14.0229C7.56857 14.4086 7.54714 14.1858 7.8 14.3915C8.02286 14.5629 8.12143 15.1201 8.27571 15.3901C8.58428 15.9301 9.80571 16.2129 10.0414 16.4015C10.0029 17.0658 9.32143 18.2229 8.84143 18.7929C7.59786 18.1762 6.55202 17.2233 5.82254 16.0423C5.09305 14.8614 4.70912 13.4996 4.71428 12.1115C4.74428 8.0315 8.00143 4.71436 12.0171 4.71436Z" fill="#F0F3FA"/>
</g>
<defs>
<clipPath id="clip0_31_13806">
<rect width="24" height="24" fill="white"/>
</clipPath>
</defs>
</svg>

<svg xmlns="http://www.w3.org/2000/svg" width="24" height="24" fill="none" viewBox="0 0 24 24"><g clip-path="url(#a)"><path fill="#00D8C1" d="M0 0h24v24H0z"/><path fill="#F0F3FA" d="M11.85 12.66c.15-.274.407-.57.639-.866.625.009 1.05.035 1.654-.287.214-.111.27-.103.334-.351-.746 0-.908.086-1.517.231.399-.574 1.946-.943 2.04-1.671-.536.12-.729.21-1.097.488l-.879.712c.039-.24.206-.497.3-.712.137-.321.099-.441.189-.775-.262.025-.394.313-.557.544-.716 1.071-.446 1.941-1.239 2.409.052-.532.262-1.132.103-1.728-.45-.042-.501.973-.501 1.552 0 1.333.021.686-.438 1.637-.034-.369-.004-1.221-.107-1.479-.124-.321-.03-.21-.291-.214-.189.352-.064 1.333.017 1.727.064.335.15.463.064.742-.038.12-.205.553-.27.681-.115-.536-.411-1.487-.848-1.431-.125.514.458 1.44.754 1.671-.009.472-.137.609-.15 1.174.077-.137.099-.21.137-.36a3.5 3.5 0 0 0 .077-.471c.57-.017 1.672-.137 1.775-.9-.472-.154-1.265.386-1.629.587.051-.287.283-.9.437-1.088.442.111 1.599.034 1.749-.592l-1.676.322.566-1.042c.617 0 1.885-.188 2.031-.784-.724-.086-1.093.163-1.671.274z"/><path fill="#F0F3FA" d="M12.017 4.714c4.012 0 7.269 3.317 7.269 7.406 0 4.123-3.189 6.257-5.422 7.166h-.013c-.54-.686-.342-.557.223-1.942.412-1.007.343-1.148.497-1.603.06-.17.176-.3.245-.428 1.958-.026 2.113-.047 2.1-.857 0-.553-.035-.356.197-.707-.163-.258-.12-.356-.064-.54.098-.322-.013-.283-.086-.562.24-.214.463-.223.608-.548-.162-.266-.407-.39-.651-.588-.429-.35-.626-.625-.634-.848-.013-.3.261-.51.265-.686.009-.201-.252-.514-.377-.741l-.385-.857c-.42-1.037-.995-1.14-2.199-1.277-.977-.116-1.577-.25-2.087-.245-.643.005-1.149.364-2.1 1.114a6.6 6.6 0 0 1-1.363.815c-.66.505-1.586 1.286-1.594 2.13-.013.364-.009.724-.017 1.084-.022.977.702 1.153.814 1.397.086.18.034.369.15.626.176.386.154.163.407.369.223.17.321.728.476.998.308.54 1.53.823 1.765 1.011-.038.665-.72 1.822-1.2 2.392a7.43 7.43 0 0 1-4.127-6.681c.03-4.08 3.287-7.398 7.303-7.398"/></g><defs><clipPath id="a"><path fill="#fff" d="M0 0h24v24H0z"/></clipPath></defs></svg>
